X:1490
T: Six Foot Sandwich (The)
T: Loretta Egan's
C: BB
L: 1/8
M: 6/8
Q: 320
R: jig
K: D
D|"D"F2A d2e|"D"fgf fed|"G"Bcd "D"AFD|"Em"BGE "A7"EFG|
"D"F2A d2A|"G" B2d "Em"gfe|"D" fga "G"gdB|"A"Ace "D"d2 :|
e|"Bm"f2B BdB|FAB dcB|"A"e2A AcA|EAc ecA|
"Bm"f2B BdB|FAB dcB|"D"fed "A"edc|"Bm"dBA B2 :|
